X: 1905
T: Tweedside
P: Tweedside
C:Niel Gow
R:3/4 time (8x32)
B:RSCDS 19-5
Z:Anselm Lingnau <anselm@strathspey.org>
M:3/4
L:1/8
K:G
BA|"G"G2 D2 E2|G3 A Bc|"D"A4 BA|"G"G2 D2 E2|G2 dc "D"BA|"G"G4 BA|
   "G"G2 D2 EF|"G"GF GA Bc|"D"A4 GA|"G"B2 cB AG|"D"A2 BA GF|"G"G4||
Bc|"G"d2 cB AG|"E"d2 ed cB|"A"A4 Bc|"G"d2 cB AG|"Em"GF GA Bc|"D"d4 e2|
   "G"d2 cB AG|"Em"dB ed "A7"cB|"D"A4 GA|"G"Bd cB AG|"C"A2 BA GE|"G"G4|]
%%center Book19/1905-Tweedside-AL.abc

%%sep 1 1 500
%%sep 1 1 500

